X: 1044
T: Polska av Gelotte
B: Melodier från Upplands bruk och Fyris bygder häfte 1, s. 14
B: Jämför [[http://www.smus.se/earkiv/fmk/browselarge.php?lang=sw&katalogid=Up+7&bildnr=00013|SMUS - katalog Up7 bild 13]] (no 8)
O: Uppland
R: Polska
C: Wilhelm Gelotte
Z: Nils L
M: 3/4
L: 1/16
K: Bb
d2=e^f g4 d2>c2 | (BA)Bc d4 B2>A2 | (G^F)GA (BA)Bc d2B2 | (AB)AG (^FG)AF D2>d2 |
d2=e^f g2g2 d2c2 | (BA)Bc d2d2 B2A2 | (G^F)GA (BA)Bc d2>B2 | (AB)A^F G6 z2 ::
(a^f)df (af)df a2ba | g2ag ^f2af d2>c2 | (BA)Bc d2B2 A2G2 | G2^FG (AG)F=E D2>a2 |
(a^f)df (af)df a2ba | g2ag ^f2af d2>c2 | (BA)Bc d2B2 A2G2 | (^FG)AF G8 ::
B2>F2 D2F2 B2d2 | (cd)cB (AB)cd e2g2 | P(f2=ef) b2>f2 d2f2 | (ec)Ac B2dB F4 |
B2>F2 D2F2 B2d2 | (cd)cB (AB)cd e2g2 | P(f2=ef) b2>f2 d2f2 | (ec)Ac [D6B6] z2 :|
(:musicend:)

(:music:)
